Numix-GalliumOS/22/mimetypes/text-x-iptables.svg

<?xml version="1.0" encoding="UTF-8" standalone="no"?>
<svg
   xmlns:dc="http://purl.org/dc/elements/1.1/"
   xmlns:cc="http://creativecommons.org/ns#"
   xmlns:rdf="http://www.w3.org/1999/02/22-rdf-syntax-ns#"
   xmlns:svg="http://www.w3.org/2000/svg"
   xmlns="http://www.w3.org/2000/svg"
   xmlns:sodipodi="http://sodipodi.sourceforge.net/DTD/sodipodi-0.dtd"
   xmlns:inkscape="http://www.inkscape.org/namespaces/inkscape"
   width="22"
   height="22"
   viewBox="0 0 22 22"
   id="svg2"
   version="1.1"
   inkscape:version="0.91 r13725"
   sodipodi:docname="text-x-iptables.svg">
  <metadata
     id="metadata30">
    <rdf:RDF>
      <cc:Work
         rdf:about="">
        <dc:format>image/svg+xml</dc:format>
        <dc:type
           rdf:resource="http://purl.org/dc/dcmitype/StillImage" />
        <dc:title />
      </cc:Work>
    </rdf:RDF>
  </metadata>
  <defs
     id="defs28" />
  <sodipodi:namedview
     pagecolor="#ffffff"
     bordercolor="#666666"
     borderopacity="1"
     objecttolerance="10"
     gridtolerance="10"
     guidetolerance="10"
     inkscape:pageopacity="0"
     inkscape:pageshadow="2"
     inkscape:window-width="1366"
     inkscape:window-height="717"
     id="namedview26"
     showgrid="false"
     inkscape:zoom="1"
     inkscape:cx="9.0951705"
     inkscape:cy="9.6297283"
     inkscape:window-x="0"
     inkscape:window-y="26"
     inkscape:window-maximized="1"
     inkscape:current-layer="svg2">
    <inkscape:grid
       type="xygrid"
       id="grid3336" />
  </sodipodi:namedview>
  <path
     style="fill:#2d2d2d;fill-opacity:1"
     d="m 4,-4e-7 c -0.472657,0 -1,0.527344 -1,1 L 3,21 c 0,0.445312 0.554687,1 1,1 l 14,0 c 0.445313,0 0.992367,-0.554753 1,-1 l 0,-15.0000004 -6,-6 z"
     id="path4-5"
     inkscape:connector-curvature="0"
     sodipodi:nodetypes="ssssssccs" />
  <path
     style="fill:#000000;fill-opacity:0.19599998"
     d="M 14,5.9999996 19,11 19,5.9999996 z"
     id="path6"
     inkscape:connector-curvature="0"
     sodipodi:nodetypes="cccc" />
  <path
     style="fill:#ffffff;fill-opacity:0.39200003"
     d="m 13,-4e-7 6,6 -5,0 c -0.445312,0 -1,-0.554688 -1,-1 z"
     id="path8"
     inkscape:connector-curvature="0"
     sodipodi:nodetypes="ccssc" />
  <path
     inkscape:connector-curvature="0"
     style="fill:#ef9815;fill-opacity:1;fill-rule:nonzero;stroke:none"
     d="m 9.6763718,7.6666673 c -0.1924129,0.2764 -0.3482879,1.2240559 0.2081684,1.6924985 0.6573558,0.5610562 0.7974758,1.2351842 0.7974758,2.2560662 0,1.435843 -1.1326908,2.585594 -0.335215,3.948567 C 8.1206395,13.600644 10.363891,10.654655 8.6707275,9.4614698 9.3411572,11.256272 6.9946525,12.333154 7.000016,14.074831 6.994656,15.92276 8.3355124,16.999641 9.9448793,16.995693 8.7977738,16.496379 8.2765146,14.989103 8.3355124,14.128316 9.1420395,16.085728 10.346801,17 12.35809,17 c -0.775352,-1.084061 -0.902062,-1.221184 -0.946646,-1.911107 0.004,-0.636436 0.243701,-0.778225 0.66272,-1.574759 1.05425,-1.771111 0.572212,-3.558735 -0.862843,-4.3929588 C 10.919348,8.9653872 10.840908,8.9219525 10.309257,8.6990379 10.002871,8.5461206 9.6978256,8.2137232 9.6767073,7.6670259 m 3.5958497,2.9991161 c 1.063303,1.457021 -0.147829,2.640154 -0.703281,3.532172 -0.455556,0.701049 -0.01709,1.86085 0.45958,2.801686 0.04191,-0.795097 0.537014,-1.341795 0.937597,-1.626451 1.226887,-0.988577 1.266107,-2.281194 0.615455,-3.431303 -0.408628,-0.631052 -0.76999,-0.83566 -1.309351,-1.276104 m 0,0"
     id="path64" />
</svg>

<svg xmlns="http://www.w3.org/2000/svg" viewBox="0 0 22 22">
 <path d="m 4 0 c -0.473 0 -1 0.527 -1 1 l 0 20 c 0 0.445 0.555 1 1 1 l 14 0 c 0.445 0 0.992 -0.555 1 -1 l 0 -15 -6 -6 z" style="fill:#2d2d2d;fill-opacity:1"/>
 <path d="m 14 6 5 5 0 -5 z" style="fill:#000;fill-opacity:0.196"/>
 <path d="m 13 0 6 6 -5 0 c -0.445 0 -1 -0.555 -1 -1 z" style="fill:#fff;fill-opacity:0.392"/>
 <path d="m 9.676 7.667 c -0.192 0.276 -0.348 1.224 0.208 1.692 0.657 0.561 0.797 1.235 0.797 2.256 0 1.436 -1.133 2.586 -0.335 3.949 c -2.226 -1.963 0.017 -4.909 -1.676 -6.102 0.67 1.795 -1.676 2.872 -1.671 4.613 -0.005 1.848 1.335 2.925 2.945 2.921 -1.147 -0.499 -1.668 -2.01 -1.609 -2.867 0.807 1.957 2.01 2.872 4.02 2.872 c -0.775 -1.084 -0.902 -1.221 -0.947 -1.911 0.004 -0.636 0.244 -0.778 0.663 -1.575 1.054 -1.771 0.572 -3.559 -0.863 -4.393 c -0.292 -0.156 -0.37 -0.199 -0.902 -0.422 -0.306 -0.153 -0.611 -0.485 -0.633 -1.032 m 3.596 2.999 c 1.063 1.457 -0.148 2.64 -0.703 3.532 -0.456 0.701 -0.017 1.861 0.46 2.802 0.042 -0.795 0.537 -1.342 0.938 -1.626 1.227 -0.989 1.266 -2.281 0.615 -3.431 -0.409 -0.631 -0.77 -0.836 -1.309 -1.276 m 0 0" style="fill:#ef9815;fill-opacity:1;stroke:none;fill-rule:nonzero"/>
</svg>
